remix/Document/contacts-book-upload-fill.svg

<svg viewBox="0 0 24 24" fill="currentColor" xmlns="http://www.w3.org/2000/svg"><path d="M7 2V22H3V2H7ZM19.0049 2C20.1068 2 21 2.89821 21 3.9908V20.0092C21 21.1087 20.1074 22 19.0049 22H9V2H19.0049ZM15 8L11 12H14V16H16V12H19L15 8ZM24 12V16H22V12H24ZM24 6V10H22V6H24Z"/></svg>

<svg viewBox="0 0 24 24" xmlns="http://www.w3.org/2000/svg"><path fill="none" d="M0 0h24v24H0Z"/><path d="M7 2v20H3V2h4Zm12 0c1.1 0 1.99.89 1.99 1.99v16.02c0 1.09-.9 1.99-2 1.99H8.98V2h10Zm-4.01 6l-4 4h3v4h2v-4h3l-4-4Zm9 4v4h-2v-4h2Zm0-6v4h-2V6h2Z"/></svg>
